X:080
T:Lady Montgomery’s Reel TS.080
M:C|
L:1/8
Q:1/2=90
S:Thomas Sands’ MS,1810,Lincolnshire
R:reel
N:Key Sig. unclear in MS. C maj sounds better than D.
O:England;Lincolnshire
Z:vmp.Ruairidh Greig, 2011
K:C
c2cG EFGE|c2cA Bcde|c2cG EFGE|DddcB2dd:|
e<cg2e<cg2|e<cg<c efga|e<cg2e<cg2|fedc Bcdf|
e<cg2e<cg2|e<cg<c efga|gefd ecdB|cAGEE2″Da Capo”CC|]

